X: 367
T: 368. Hilf, Herr Jesu, la\ss gelingen
N: Derived from chor368.krn
C: Johann Sebastian Bach
%%abc-version 2.0
%%abcx-abcm2ps-target-version 5.9.1 (29 Sep 2008)
%%abc-creator hum2abc beta
%%abcx-conversion-date 2019/03/11 17:28:19
%%abc-edited-by Craig Stuart Sapp
%%humdrum-veritas 1326991262
%%humdrum-veritas-data 2923713085
%%
%%barnumbers 0
L: 1/4
M: 3/4
%%staves [1 2 3 4]
V: 1 clef=treble
V: 2 clef=treble
V: 3 clef=treble-8
V: 4 clef=bass
K: F
[V:1] cA2 | 
[V:2] AF2 | 
[V:3] fc2 | 
[V:4] F,/G,/A,F, | 
[V:1] G2F | 
[V:2] FEF | 
[V:3] c3/B/A | 
[V:4] C,2D, | 
[V:1] Bc3/d//_e// | 
[V:2] DGF | 
[V:3] B2A/B//c// | 
[V:4] G,/F,/_E,F, | 
[V:1] d3 | 
[V:2] F3 | 
[V:3] cB/A/B | 
[V:4] B,,/C,/D,B,, | 
[V:1] !fermata!c3 | 
[V:2] !fermata!F3 | 
[V:3] !fermata!A3 | 
[V:4] !fermata!F,3 | 
[V:1] dB2 | 
[V:2] AG2 | 
[V:3] fd2 | 
[V:4] D,G,F, | 
[V:1] c2F | 
[V:2] GFF | 
[V:3] c/B/AA | 
[V:4] E,F,/E,/ D,/C,/ | 
[V:1] BA2 | 
[V:2] F/G/GF | 
[V:3] d/c/c2 | 
[V:4] D,/E,/F,F, | 
[V:1] !fermata!G3 :|]  
[V:2] !fermata!E3 :|]  
[V:3] !fermata!c3 :|]  
[V:4] !fermata!C,3 :|]  
[V:1] ec2 | 
[V:2] G/F/GG | 
[V:3] c2e | 
[V:4] C,/D,/E,C, | 
[V:1] A2d | 
[V:2] GFF | 
[V:3] c2B- | 
[V:4] F,/E,/F,B, | 
[V:1] ^cd3/e//f// | 
[V:2] GAB/A/ | 
[V:3] BAd/=c/ | 
[V:4] E,F,D,- | 
[V:1] e3 | 
[V:2] G/F/G3/E/ | 
[V:3] BA/G/A | 
[V:4] D,^C,/=B,,/C, | 
[V:1] !fermata!A3 | 
[V:2] !fermata!F3 | 
[V:3] !fermata!A3 | 
[V:4] !fermata!D,3 | 
[V:1] def | 
[V:2] FGA | 
[V:3] B3/G/c | 
[V:4] B,/A,/G,F, | 
[V:1] gcB | 
[V:2] G/F/GE | 
[V:3] c2G | 
[V:4] E,/D,/E,C, | 
[V:1] AdB | 
[V:2] CB,F | 
[V:3] F2d | 
[V:4] F,B,,2 | 
[V:1] G3 | 
[V:2] FE/D/E | 
[V:3] GcB | 
[V:4] C,/B,,/C,2 | 
[V:1] !fermata!F3 |]  
[V:2] !fermata!C3 |]  
[V:3] !fermata!A3 |]  
[V:4] !fermata!F,,3 |]  



